X:1
T:Fünf Lieder für Sopran, Alt, Tenor und Bass
T:Im Frühling
T:Carl Loewe
T:Nikolaus Lenau
T:Im Frühling
T:No. 2 aus Fünf Lieder, Op 81
T:CPDL   —   Creative Commons Attribution Non Commercial 3.0
C:Carl Loewe
Z:Nikolaus Lenau
Z:CPDL   —   Creative Commons Attribution Non Commercial 3.0
%%score [ ( 1 2 ) 3 4 ]
L:1/8
Q:1/4=72
M:3/4
K:G
V:1 treble nm="Sopran\nAlt"
V:2 treble 
V:3 treble-8 nm="Tenor"
V:4 bass nm="Bass"
V:1
"^Allegretto"!p! D | D E/F/ G/F/ G/A/ B/A/ B/c/ | (de/f/ g/f/e/d/) e/d/ c/B/ | c/B/ A/G/ Fe dc | %4
w: 1. An|ih- ren * bun- * ten * Lie- * dern *|klet- * * * * * * tert * die *|Ler- * che * se- lig in die|
w: 2. Da|sind, so * weit * die * Bli- * cke *|glei- * * * * * * ten, * Al- *|tä- * re * fest- lich auf- ge-|
w: 3. Der|Lenz hat * Ro- * sen * an- * ge- *|zün- * * * * * * det * an *|Leuch- * tern * von Sma- ragd im|
 (c2 B) z z!f! B/c/ | d B/c/ d d/e/ =f/e/ f/d/ | (e/d/e/c/ g=f/e/) d/c/ B/A/ | %7
w: Luft; _ ein *|Ju- bel- * chor von * Sän- * gern *|schmet- * * * * * * tert * im *|
w: baut; _ und *|all die * tau- send * Her- * zen *|läu- * * * * * * ten * zur *|
w: Dom, _ und *|je- de * See- le * schwillt * und *|mün- * * * * * * det * hin- *|
 GG F/G/ A/B/ c/d/ e/f/ | ((!>!f2 g2)) z |] %9
w: Wal- de, vol- * ler * Blüt' * und *|Duft. _|
w: Lie- bes- fei- * er * drin- * gend *|laut. _|
w: ü- ber in * den * Op- * fer- *|strom. _|
V:2
 D | DD DD DD | D4 DD | DD DF DF | (DE/F/ G/F/G/A/ B/A/) G/A/ | B G/A/ BG GG | G2 G2 z E | %7
w: ||||||schmet- tert *|
 DD D E/F/ E/F/ G/A/ | (c2 B2) x |] %9
w: ||
V:3
!p! B | BB BB BB | B4 BB | cc d/c/ B/c/ B/A/ G/A/ | (A2 G2) z!f! d/c/ | B d/c/ B B/c/ d/c/ d/B/ | %6
w: 1. An|ih- ren bun- ten Lie- dern|klet- tert die|Ler- che se- * lig * in * die *|Luft; _ ein *|Ju- bel _ chor von * Sän- * gern *|
w: 2. Da|sind, so weit die Bli- cke|glei- ten, Al-|tä- re fest- * lich * auf- * ge- *|baut; _ und *|all die _ tau- send * Her- * zen *|
w: 3. Der|Lenz hat Ro- sen an- ge-|zün- det an|Leuch- tern von * Sma- * ragd * im *|Dom, _ und *|je- de _ See- le * schwillt _ und *|
 c2 e2 z c | BB A/B/ c/d/ G/A/ B/c/ | !>!d4 z |] %9
w: schmet- tert im|Wal- de, vol- * ler * Blüt' * und *|Duft.|
w: läu- ten zur|Lie- bes- fei- * er * drin- * gend *|laut.|
w: mün- det hin-|ü- ber in * den * Op- * fer- *|strom.|
V:4
!p! D, | G,D, G,D, G,D, | G,D,G,D, G,D, | A,D, A,D, F,D, | (G,2 G,,2) z!f! B,/A,/ | %5
 G, B,/A,/ G,G, B,G, | C2 C,2 z C, | D,D, D,D, D,D | (!>!A,2 G,2) z |] %9

